X: 1476
T: Andrea's
R: waltz
M: 3/4
K: Eminor
E4FG|A4B2|E4FG|A4B2|
c4dc|BGG2B2|A6-|A2G2F2|
E4FG|A4B2|E4FG|A4B2|
ed cB AG|A4GF|G6|z2B2A2|
^G2A2B2|cE-E2AG|F2G2A2|BD-D2GF|
E3FG2|E3FG2|E2F2G2|B4BA|
^G2A2B2|cEE2AG|F2G2A2|B4GF|
E2G2B2|A2G2F2|E6-|E4z2|

